Numix-Light/16/status/indicator-keyboard-Bn.svg

<?xml version="1.0" encoding="UTF-8" standalone="no"?>
<svg
   xmlns:dc="http://purl.org/dc/elements/1.1/"
   xmlns:cc="http://creativecommons.org/ns#"
   xmlns:rdf="http://www.w3.org/1999/02/22-rdf-syntax-ns#"
   xmlns:svg="http://www.w3.org/2000/svg"
   xmlns="http://www.w3.org/2000/svg"
   xmlns:sodipodi="http://sodipodi.sourceforge.net/DTD/sodipodi-0.dtd"
   xmlns:inkscape="http://www.inkscape.org/namespaces/inkscape"
   viewBox="0 0 16 16"
   id="svg2"
   version="1.1"
   inkscape:version="0.91 r13725"
   sodipodi:docname="indicator-keyboard-Bn.svg">
  <metadata
     id="metadata13">
    <rdf:RDF>
      <cc:Work
         rdf:about="">
        <dc:format>image/svg+xml</dc:format>
        <dc:type
           rdf:resource="http://purl.org/dc/dcmitype/StillImage" />
      </cc:Work>
    </rdf:RDF>
  </metadata>
  <defs
     id="defs11" />
  <sodipodi:namedview
     pagecolor="#ffffff"
     bordercolor="#666666"
     borderopacity="1"
     objecttolerance="10"
     gridtolerance="10"
     guidetolerance="10"
     inkscape:pageopacity="0"
     inkscape:pageshadow="2"
     inkscape:window-width="640"
     inkscape:window-height="480"
     id="namedview9"
     showgrid="false"
     inkscape:zoom="14.75"
     inkscape:cx="8"
     inkscape:cy="8"
     inkscape:window-x="75"
     inkscape:window-y="34"
     inkscape:window-maximized="0"
     inkscape:current-layer="svg2" />
  <path
     style="fill:#353535;fill-opacity:1"
     d="M 1.5996094 0 C 0.71320937 2.9605947e-16 0 0.71320937 0 1.5996094 L 0 14.400391 C 2.9605947e-16 15.286791 0.71320937 16 1.5996094 16 L 14.400391 16 C 15.286791 16 16 15.286791 16 14.400391 L 16 1.5996094 C 16 0.71320937 15.286791 0 14.400391 0 L 1.5996094 0 z M 4.921875 4.828125 C 5.257875 4.828125 5.5769531 4.8542031 5.8769531 4.9082031 C 6.1829531 4.9622031 6.4497344 5.0517344 6.6777344 5.1777344 C 6.9057344 5.3037344 7.0847969 5.4716406 7.2167969 5.6816406 C 7.3547969 5.8856406 7.4238281 6.1412656 7.4238281 6.4472656 C 7.4238281 6.7832656 7.3380625 7.0705469 7.1640625 7.3105469 C 6.9960625 7.5445469 6.7684688 7.706875 6.4804688 7.796875 C 6.6604687 7.838875 6.8246094 7.8985625 6.9746094 7.9765625 C 7.1246094 8.0545625 7.2570937 8.1572031 7.3710938 8.2832031 C 7.4850938 8.4032031 7.5708594 8.554375 7.6308594 8.734375 C 7.6968594 8.908375 7.7304688 9.1172812 7.7304688 9.3632812 C 7.7304688 9.9512814 7.4972969 10.400891 7.0292969 10.712891 C 6.5612969 11.018891 5.837375 11.171875 4.859375 11.171875 C 4.757375 11.171875 4.638 11.166297 4.5 11.154297 C 4.368 11.148297 4.2299375 11.137141 4.0859375 11.119141 C 3.9479375 11.107141 3.8154531 11.092219 3.6894531 11.074219 C 3.5634531 11.050219 3.4552344 11.025953 3.3652344 11.001953 L 3.3652344 4.9980469 C 3.4732344 4.9680469 3.5945625 4.9437813 3.7265625 4.9257812 C 3.8585625 4.9017813 3.9928594 4.8850469 4.1308594 4.8730469 C 4.2748594 4.8550469 4.4129219 4.8419375 4.5449219 4.8359375 C 4.6829219 4.8299375 4.807875 4.828125 4.921875 4.828125 z M 4.921875 5.3496094 C 4.699875 5.3496094 4.5114688 5.3551875 4.3554688 5.3671875 C 4.2054688 5.3791875 4.0805156 5.3941094 3.9785156 5.4121094 L 3.9785156 7.609375 L 5.1660156 7.609375 C 5.3880156 7.609375 5.5969219 7.5944531 5.7949219 7.5644531 C 5.9929219 7.5284531 6.1645937 7.4668125 6.3085938 7.3828125 C 6.4585938 7.2928125 6.5761562 7.1772031 6.6601562 7.0332031 C 6.7441562 6.8832031 6.7851562 6.6928438 6.7851562 6.4648438 C 6.7851562 6.2608438 6.7403906 6.091125 6.6503906 5.953125 C 6.5603906 5.809125 6.4316719 5.6915625 6.2636719 5.6015625 C 6.1016719 5.5115625 5.9057344 5.4481094 5.6777344 5.4121094 C 5.4497344 5.3701094 5.197875 5.3496094 4.921875 5.3496094 z M 10.789062 6.375 C 11.143063 6.375 11.437875 6.4272969 11.671875 6.5292969 C 11.911875 6.6312969 12.100281 6.77675 12.238281 6.96875 C 12.382281 7.15475 12.484922 7.3805312 12.544922 7.6445312 C 12.604922 7.9085313 12.634766 8.1995781 12.634766 8.5175781 L 12.634766 11.119141 L 12.048828 11.119141 L 12.048828 8.7070312 C 12.048828 8.3770313 12.024562 8.0971406 11.976562 7.8691406 C 11.934563 7.6411406 11.859953 7.4545469 11.751953 7.3105469 C 11.649953 7.1665469 11.511891 7.0658594 11.337891 7.0058594 C 11.169891 6.9398594 10.957219 6.90625 10.699219 6.90625 C 10.423219 6.90625 10.182516 6.9211719 9.9785156 6.9511719 C 9.7805156 6.9811719 9.6517969 7.0092031 9.5917969 7.0332031 L 9.5917969 11.119141 L 9.0078125 11.119141 L 9.0078125 6.6269531 C 9.1818125 6.5789531 9.4149844 6.5248438 9.7089844 6.4648438 C 10.002984 6.4048438 10.363062 6.375 10.789062 6.375 z M 3.9785156 8.1308594 L 3.9785156 10.587891 C 4.0685156 10.599891 4.2028125 10.614812 4.3828125 10.632812 C 4.5628125 10.644813 4.7456406 10.650391 4.9316406 10.650391 C 5.2076406 10.650391 5.4744219 10.631703 5.7324219 10.595703 C 5.9964219 10.559703 6.2277812 10.494438 6.4257812 10.398438 C 6.6237813 10.302437 6.7823437 10.169953 6.9023438 10.001953 C 7.0223438 9.833953 7.0820313 9.6194688 7.0820312 9.3554688 C 7.0820312 9.1154688 7.0410312 8.9157656 6.9570312 8.7597656 C 6.8730312 8.5977656 6.7517031 8.4728125 6.5957031 8.3828125 C 6.4397031 8.2868125 6.2494844 8.2195938 6.0214844 8.1835938 C 5.7994844 8.1475937 5.5494375 8.1308594 5.2734375 8.1308594 L 3.9785156 8.1308594 z "
     id="path4" />
</svg>

<svg xmlns="http://www.w3.org/2000/svg" viewBox="0 0 16 16">
 <path d="m 1.6 0 c -0.886 0 -1.6 0.713 -1.6 1.6 l 0 12.801 c 0 0.886 0.713 1.6 1.6 1.6 l 12.801 0 c 0.886 0 1.6 -0.713 1.6 -1.6 l 0 -12.801 c 0 -0.886 -0.713 -1.6 -1.6 -1.6 l -12.801 0 z m 3.322 4.828 c 0.336 0 0.655 0.026 0.955 0.08 c 0.306 0.054 0.573 0.144 0.801 0.27 c 0.228 0.126 0.407 0.294 0.539 0.504 c 0.138 0.204 0.207 0.46 0.207 0.766 c 0 0.336 -0.086 0.623 -0.26 0.863 c -0.168 0.234 -0.396 0.396 -0.684 0.486 c 0.18 0.042 0.344 0.102 0.494 0.18 c 0.15 0.078 0.282 0.181 0.396 0.307 c 0.114 0.12 0.2 0.271 0.26 0.451 c 0.066 0.174 0.1 0.383 0.1 0.629 c 0 0.588 -0.233 1.038 -0.701 1.35 c -0.468 0.306 -1.192 0.459 -2.17 0.459 c -0.102 0 -0.221 -0.006 -0.359 -0.018 c -0.132 -0.006 -0.27 -0.017 -0.414 -0.035 c -0.138 -0.012 -0.27 -0.027 -0.396 -0.045 c -0.126 -0.024 -0.234 -0.048 -0.324 -0.072 l 0 -6 c 0.108 -0.03 0.229 -0.054 0.361 -0.072 c 0.132 -0.024 0.266 -0.041 0.404 -0.053 c 0.144 -0.018 0.282 -0.031 0.414 -0.037 c 0.138 -0.006 0.263 -0.008 0.377 -0.008 z m 0 0.521 c -0.222 0 -0.41 0.006 -0.566 0.018 c -0.15 0.012 -0.275 0.027 -0.377 0.045 l 0 2.197 l 1.187 0 c 0.222 0 0.431 -0.015 0.629 -0.045 c 0.198 -0.036 0.37 -0.098 0.514 -0.182 c 0.15 -0.09 0.268 -0.206 0.352 -0.35 c 0.084 -0.15 0.125 -0.34 0.125 -0.568 c 0 -0.204 -0.045 -0.374 -0.135 -0.512 c -0.09 -0.144 -0.219 -0.262 -0.387 -0.352 c -0.162 -0.09 -0.358 -0.153 -0.586 -0.189 c -0.228 -0.042 -0.48 -0.063 -0.756 -0.063 z m 5.867 1.025 c 0.354 0 0.649 0.052 0.883 0.154 c 0.24 0.102 0.428 0.247 0.566 0.439 c 0.144 0.186 0.247 0.412 0.307 0.676 c 0.06 0.264 0.09 0.555 0.09 0.873 l 0 2.602 l -0.586 0 l 0 -2.412 c 0 -0.33 -0.024 -0.61 -0.072 -0.838 c -0.042 -0.228 -0.117 -0.415 -0.225 -0.559 c -0.102 -0.144 -0.24 -0.245 -0.414 -0.305 c -0.168 -0.066 -0.381 -0.1 -0.639 -0.1 c -0.276 0 -0.517 0.015 -0.721 0.045 c -0.198 0.03 -0.327 0.058 -0.387 0.082 l 0 4.086 l -0.584 0 l 0 -4.492 c 0.174 -0.048 0.407 -0.102 0.701 -0.162 c 0.294 -0.06 0.654 -0.09 1.08 -0.09 z m -6.811 1.756 l 0 2.457 c 0.09 0.012 0.224 0.027 0.404 0.045 c 0.18 0.012 0.363 0.018 0.549 0.018 c 0.276 0 0.543 -0.019 0.801 -0.055 c 0.264 -0.036 0.495 -0.101 0.693 -0.197 c 0.198 -0.096 0.357 -0.228 0.477 -0.396 c 0.12 -0.168 0.18 -0.382 0.18 -0.646 c 0 -0.24 -0.041 -0.44 -0.125 -0.596 c -0.084 -0.162 -0.205 -0.287 -0.361 -0.377 c -0.156 -0.096 -0.346 -0.163 -0.574 -0.199 c -0.222 -0.036 -0.472 -0.053 -0.748 -0.053 l -1.295 0 z" style="fill:#353535;fill-opacity:1"/>
</svg>
